X:5805
T:Gan Ainm
R:Reel
C:
S:
H:
N:
D:
Z:Adrian Scahill
M:4/4
L:1/8
K:D
D3F A2ag|f+ag+ef dBB2|BAFB ABde|fdec dBAF|\
D3F A2ag|f+ag+ef dBB2|BAFB A2de|fdec dBAB||\
d2 (3fed adfd|Adfd BAFA|d2fd adfd|(3Bcd AF FEEA|\
d2 (3fed adfd|Adfd BAFA|d2cd BdAF|ABde fdAF||


